!!!COM: Palestrina, Giovanni Perluigi da
!!!OPR: Missa Quam pulchra es
!!!OMD: Credo
!!!OTL: Et iterum
**kern	**kern	**kern	**kern
*Ibass	*Itenor	*Icalto	*Icant
!Bassus	!Tenor	!Altus	!Cantus
*clefF4	*clefGv2	*clefG2	*clefG2
*k[]	*k[]	*k[]	*k[]
*C:ion	*C:ion	*C:ion	*C:ion
*M4/2	*M4/2	*M4/2	*M4/2
=135	=135	=135	=135
0r	1r	1d	0r
.	1G	2.g	.
.	.	4g	.
=136	=136	=136	=136
0r	2.c	1g	2r
.	.	.	2g
.	4c	.	.
.	2c	1e	2.cc
.	2c	.	.
.	.	.	4cc
=137	=137	=137	=137
0r	2.f	2.a	2cc
.	.	.	2cc
.	4e	8g	.
.	.	8a	.
.	4d	2b-	4ff
.	4c	.	4ee
.	2d	[2a	4dd
.	.	.	4cc
=138	=138	=138	=138
1r	2B	4a]	2dd
.	.	4g	.
.	2c	1g	2ee
1D	2A	.	2dd
.	[2d	2f#	2a
=139	=139	=139	=139
2.G	2d]	2r	4b
.	.	.	8a
.	.	.	8b
.	2e	2g	1cc
4G	.	.	.
1G	2d	2.g	.
.	[2g	.	2b
.	.	4g	.
=140	=140	=140	=140
2.c	4g]	2e	1cc
.	4f	.	.
.	4e	2.cc	.
4B	4d	.	.
4A	2e	.	1r
4G	.	4b	.
2A	[2f	4a	.
.	.	4g	.
=141	=141	=141	=141
2F	4f]	2a	0r
.	4e	.	.
1G	4d	2b	.
.	4c	.	.
.	2B	2g	.
4F	[2c	[2a	.
4E	.	.	.
=142	=142	=142	=142
1D	2c]	2a]	2r
.	2B	4g	2dd
.	.	4f	.
2C	[1c	2e	2.ee
2c	.	2g	.
.	.	.	8dd
.	.	.	8ee
=143	=143	=143	=143
2A	1c]	2a	2ff
2c	.	2g	2ee
2G	1r	2.b	2.dd
2G	.	.	.
.	.	4a	4cc
=144	=144	=144	=144
1G	2r	4g	1b
.	.	4f	.
.	2g	4e	.
.	.	4d	.
1r	2e	4c	[1cc
.	.	4d	.
.	2g	2e	.
=145	=145	=145	=145
0r	2.d	2f#	2cc]
.	.	1g	2b
.	4d	.	.
.	[1d	.	2a
.	.	2f#	2a
=146	=146	=146	=146
1G	1d]	0g	2.b
.	.	.	8a
.	.	.	8b
2E	2r	.	2cc
2G	2d	.	2b
=147	=147	=147	=147
2C	2.e	2r	0cc
2c	.	2g	.
.	8d	.	.
.	8e	.	.
2A	2f	2.a	.
2c	2e	.	.
.	.	8g	.
.	.	8a	.
=148	=148	=148	=148
2G	1.d	2b-	2r
2F#	.	2a	2dd
[1G	.	[1g	2b
.	2B	.	2dd
=149	=149	=149	=149
2G]	1e	1g]	2g
2E	.	.	2b
1A	1c	1e	2cc
.	.	.	2ee
=150	=150	=150	=150
1F	2.f	2a	4dd
.	.	.	4cc
.	.	2a	1cc
.	4e	.	.
1G	1d	1g	.
.	.	.	2b
=151	=151	=151	=151
2.A	2c	1e	0cc
.	1e	.	.
8G	.	.	.
8F	.	.	.
2E	.	2r	.
[2F	2c	[2a	.
=152	=152	=152	=152
2F]	2d	2a]	0r
2E	2e	2g	.
1D	2f	2a	.
.	4e	2b	.
.	4d	.	.
=153	=153	=153	=153
0A	2.e	2.cc	2r
.	.	.	1ee
.	4d	4b	.
.	4c	4a	.
.	4B	4g	.
.	2A	2a	2cc
=154	=154	=154	=154
0r	2B	1g	2dd
.	2c	.	2ee
.	[1d	2f	4ff
.	.	.	4ee
.	.	4f	4dd
.	.	4g	4cc
=155	=155	=155	=155
0r	2d]	4a	2dd
.	.	4b	.
.	4c	2.cc	1ee
.	4B	.	.
.	2c	.	.
.	.	4b	.
.	2d	[2a	4dd
.	.	.	4cc
=156	=156	=156	=156
1r	1e	2a]	2b
.	.	2g#	2b
[1A	2r	1a	2.cc
.	2e	.	.
.	.	.	4cc
=157	=157	=157	=157
2A]	2c	0r	1a
2F	2d	.	.
2G	2e	.	1r
2A	4f	.	.
.	4e	.	.
=158	=158	=158	=158
4B-	4d	0r	0r
4A	4c	.	.
4G	2.d	.	.
4F	.	.	.
2G	.	.	.
.	4e	.	.
[2A	2c	.	.
=159	=159	=159	=159
2A]	1B	2r	1r
2G#	.	1e	.
2.A	1A	.	2r
.	.	2c	[2a
4G	.	.	.
=160	=160	=160	=160
2F	0r	2d	2a]
2E	.	2e	2g
1D	.	2f	2a
.	.	4e	2b
.	.	4d	.
=161	=161	=161	=161
0r	0r	2c	2cc
.	.	2d	4b
.	.	.	4a
.	.	2e	2g
.	.	2f	2a
=162	=162	=162	=162
0r	1.e	4g	1b
.	.	4f	.
.	.	4e	.
.	.	4d	.
.	.	4c	2cc
.	.	4A	.
.	2c	[2a	2cc
=163	=163	=163	=163
1r	2d	2a]	1b
.	2e	2g#	.
2r	2f	1a	[1a
[2A	4e	.	.
.	4d	.	.
=164	=164	=164	=164
2A]	2c	0r	1a]
2F	2d	.	.
2G	2e	.	1r
2A	4f	.	.
.	4e	.	.
=165	=165	=165	=165
4B-	4d	1r	0r
4A	4c	.	.
4G	2d	.	.
4F	.	.	.
2G	2.e	2r	.
[2A	.	[2a	.
.	4d	.	.
=166	=166	=166	=166
2A]	2c	2a]	0r
2D	2d	2f	.
2.E	2B	2g	.
.	2B	2g	.
8D	.	.	.
8E	.	.	.
=167	=167	=167	=167
4F	1A	2.a	2r
4G	.	.	.
4A	.	.	1ee
4B	.	8g	.
.	.	8f	.
2c	2r	2e	.
2F	[2a	4f	2cc
.	.	4e	.
=168	=168	=168	=168
0r	2a]	4d	2dd
.	.	4c	.
.	2f	2d	2dd
.	2g	1c	2.ee
.	2a	.	.
.	.	.	8dd
.	.	.	8cc
=169	=169	=169	=169
2r	4g	1.e	2b
.	4f	.	.
1A	4e	.	4cc
.	4d	.	4b
.	4c	.	4a
.	4A	.	4g
2F	[2c	2f	2a
=170	=170	=170	=170
2G	2c]	2e	1g
2G	2B	2d	.
2.A	2c	2.c	2.e
.	[2e	.	.
8G	.	8B	4f
8F	.	8A	.
=171	=171	=171	=171
2E	2e]	2G	2g
2F	2c	1c	2a
1D	2d	.	1f
.	2d	2B	.
=172	=172	=172	=172
1C	2.e	1c	2r
.	.	.	2cc
.	8d	.	.
.	8c	.	.
1r	2B	2r	2dd
.	4c	2e	2g
.	4B	.	.
=173	=173	=173	=173
2r	4A	2f	4a
.	4G	.	4b
2c	2A	2e	4cc
.	.	.	4a
2d	1G	2.g	1b
2G	.	.	.
.	.	4f	.
=174	=174	=174	=174
4A	2r	4e	2cc
4B	.	4d	.
4c	2c	2e	2.a
4A	.	.	.
2B	2d	2d	.
.	.	.	4g
2c	2e	[2c	[2g
=175	=175	=175	=175
1A	2c	2c]	2g]
.	2c	1cc	2f#
1G	1d	.	1g
.	.	2b	.
=176	=176	=176	=176
2r	2c	2cc	2r
1F	1f	1a	1cc
2E	2g	2g	2cc
=177	=177	=177	=177
2F	2a	2f	2cc
2D	2f	2a	2dd
[1C	4g	2cc	2ee
.	4f	.	.
.	4e	[2cc	4gg
.	4d	.	4ff
=178	=178	=178	=178
1C]	1c	4cc]	4ee
.	.	4b	4dd
.	.	4a	2cc
.	.	4g	.
1r	1r	2f	2dd
.	.	2e	[2ee
=179	=179	=179	=179
1r	2r	4c	4ee]
.	.	4d	4dd
.	2c	4e	1cc
.	.	4c	.
2r	2f	1d	.
2G	2d	.	2b
=180	=180	=180	=180
2c	1e	1c	1cc
2A	.	.	.
1B	2d	1r	1r
.	[2g	.	.
=181	=181	=181	=181
2A	4g]	0r	0r
.	4f	.	.
2.d	2f	.	.
.	2.e	.	.
4c	.	.	.
2c	.	.	.
.	8d	.	.
.	8c	.	.
=182	=182	=182	=182
2.B	2d	0r	2r
.	1g	.	2g
8A	.	.	.
8G	.	.	.
2A	.	.	2cc
2A	2f#	.	2a
=183	=183	=183	=183
1G	1g	2r	2.b
.	.	2d	.
.	.	.	4b
1d	1r	2f	2a
.	.	2d	[2dd
=184	=184	=184	=184
2A	0r	2.e	4dd]
.	.	.	4cc
2c	.	.	2cc
.	.	4d	.
2.G	.	2d	2.b
.	.	[2g	.
4G	.	.	8a
.	.	.	8g
=185	=185	=185	=185
1D	2r	4g]	2a
.	.	4f	.
.	2d	2f	2a
1r	2g	2.e	2g
.	2e	.	[2cc
.	.	8d	.
.	.	8c	.
=186	=186	=186	=186
0r	2.f	2d	4cc]
.	.	.	4b
.	.	2d	2b
.	4f	.	.
.	2e	2c	2.a
.	[2d	[2f	.
.	.	.	8g
.	.	.	8a
=187	=187	=187	=187
0r	4d]	4f]	4b-
.	4c	4e	4a
.	2c	2e	2.a
.	2.B	2d	.
.	.	.	4g
.	.	4c	[2g
.	8A	4B	.
.	8G	.	.
=188	=188	=188	=188
2r	2A	2c	2g]
2D	2A	2d	2f#
2G	2G	1B	1g
2E	2G	.	.
=189	=189	=189	=189
1F	2c	2r	0r
.	2A	2d	.
2E	2B	2g	.
[2A	4A	2e	.
.	4B	.	.
=190	=190	=190	=190
2A]	4c	2f	0r
.	4d	.	.
2G	2.e	2e	.
2.F	.	[1a	.
.	4d	.	.
.	2d	.	.
8E	.	.	.
8D	.	.	.
=191	=191	=191	=191
1E	2c	2a]	0r
.	2B	2g	.
2D	1d	2.f	.
[2d	.	.	.
.	.	8e	.
.	.	8d	.
=192	=192	=192	=192
2d]	1A	1e	1r
2c#	.	.	.
2d	2r	1d	2r
[2G	[2d	.	[2b
=193	=193	=193	=193
2G]	2d]	2.g	2b]
2G	2d	.	2b
.	.	4g	.
2G	2d	2g	2b
2G	2d	2g	2b
=194	=194	=194	=194
1c	1.e	1g	1.cc
1A	.	2a	.
.	2e	[2a	2cc
=195	=195	=195	=195
2F	2f	2a]	2cc
2G	2d	4g	2b
.	.	4f	.
1A	1c	2e	2.cc
.	.	2f#	.
.	.	.	4a
=196	=196	=196	=196
0G	1d	2.g	4b
.	.	.	4cc
.	.	.	2.cc
.	.	8f	.
.	.	8e	.
.	1B	2d	.
.	.	.	4b
.	.	[2g	2b
=197	=197	=197	=197
1r	1d	2g]	1a
.	.	2f#	.
2r	2e	[1g	2.g
2E	2e	.	.
.	.	.	4a
=198	=198	=198	=198
1G	2d	1g]	1b
.	2B	.	.
2A	2c	2r	1r
2A	2c	2e	.
=199	=199	=199	=199
2G	2B	1g	0r
2E	2e	.	.
2F	4A	2a	.
.	4B	.	.
2F	4c	2a	.
.	4d	.	.
=200	=200	=200	=200
2E	2e	2g	1r
2A	2c	2e	.
4D	1d	2f	2r
4E	.	.	.
4F	.	2f	2a
4G	.	.	.
=201	=201	=201	=201
2A	2c	2e	1cc
2F	1f	2a	.
1B-	.	4d	2dd
.	.	4e	.
.	2d	4f	2dd
.	.	4g	.
=202	=202	=202	=202
1A	2e	2.a	2cc
.	2f	.	2a
.	.	8g	.
.	.	8f	.
1r	2g	2e	2b
.	2G	2g	2b
=203	=203	=203	=203
0r	2A	2.f	2a
.	2B	.	2dd
.	.	4d	.
.	2c	4e	4g
.	.	4f	4a
.	4B	[2g	4b
.	4A	.	4cc
=204	=204	=204	=204
0r	2B	4g]	2dd
.	.	4f	.
.	2c	2e	1cc
.	1G	2d	.
.	.	2g	2b
=205	=205	=205	=205
2r	1c	1.g	2cc
2c	.	.	2ee
1c	1r	.	1ee
.	.	2e	.
=206	=206	=206	=206
2A	2r	2f	2cc
2B-	2d	2f	2dd
2B-	2f	2d	2dd
2G	2g	[2e	2b
=207	=207	=207	=207
2.A	1e	4e]	2.cc
.	.	4d	.
.	.	1c	.
4G	.	.	4b
2F	2f	.	2a
2G	2d	2B	2b
=208	=208	=208	=208
1C	2.e	2.c	1g
.	4d	4d	.
1r	2c	2e	1a
.	2d	2f	.
=209	=209	=209	=209
1r	2B	2d	0g
.	1c	1e	.
1G	.	.	.
.	4B	4d	.
.	4A	4c	.
=210	=210	=210	=210
1G	1B	2d	2r
.	.	2g	2dd
2E	1c	2g	2ee
2F	.	2a	2cc
=211	=211	=211	=211
2F	2d	2f	2ff
2D	2d	1a	2ff
2.E	2c	.	1ee
.	2B	[2g	.
4D	.	.	.
=212	=212	=212	=212
2C	2A	2g]	2r
2D	2A	2f#	2dd
1G	2G	2g	1dd
.	2g	2d	.
=213	=213	=213	=213
0r	1g	1e	2b
.	.	.	2cc
.	2e	2c	2cc
.	2f	2d	2a
=214	=214	=214	=214
0r	2f	2d	2.b
.	2d	2B	.
.	.	.	4a
.	2.e	2.c	1g
.	4d	4d	.
=215	=215	=215	=215
1r	2c	2e	1a
.	2d	2f	.
2r	2B	2d	2g
2c	2e	2c	4cc
.	.	.	4dd
=216	=216	=216	=216
1c	1g	1.cc	4ee
.	.	.	4ff
.	.	.	4gg
.	.	.	4ee
2A	2a	.	2.ff
2B-	2f	[2b-	.
.	.	.	4ee
=217	=217	=217	=217
2B-	2.g	2b-]	4dd
.	.	.	4cc
2G	.	2b-	2.dd
.	4f	.	.
2.A	2e	2a	.
.	.	.	4cc
.	2f	2a	[2cc
4G	.	.	.
=218	=218	=218	=218
2F	1d	2a	2cc]
2G	.	4g	2b
.	.	4f	.
1A	1c	2e	2cc
.	.	2f#	2cc
=219	=219	=219	=219
0G	0d	0g	0b
=220	=220	=220	=220
0C	0c	0g	0cc
=221	=221	=221	=221
0C	0c	0e	0cc
==	==	==	==
*-	*-	*-	*-
!!!CDT: 1525/^1526/-1594/2/2
!!!OCY: Italia
!!!AGN: Mass (Parody)
!!!AST: renaissance, vocal
!!!ASW: Motet 1532 (Johannes Lupi)
!!!PWK: Masses, Book 6
!!!RNB: Cadence finals: G
!!!YOR: Le Opere Complete, v. 21, p. 73
!!!YOO: Rome, Italy: Fratelli Scalera
!!!END: 1992//
!!!EED: John Miller
!!!YEC: Copyright 2000, John Miller
!!!YEN: United States of America
!!!YEM: Rights to all derivative electronic formats reserved.
!!!YEM: Refer to licensing agreement for further details.
!!!YEM: This file must be accompanied by the licensing agreement.
!!!YEM: A copy of the licensing agreement may be found at http://www.music-cog.ohio-state.edu/HumdrumDatabases/Palestrina/license.txt
!!!EMD: converted to Humdrum by Bret Aarden
